icons/line/emoji-happy.svg

<svg width="24" height="24" viewBox="0 0 24 24" fill="none" xmlns="http://www.w3.org/2000/svg">
<path fill-rule="evenodd" clip-rule="evenodd" d="M4 12C4 7.58172 7.58172 4 12 4C16.4183 4 20 7.58172 20 12C20 16.4183 16.4183 20 12 20C7.58172 20 4 16.4183 4 12ZM12 2C6.47715 2 2 6.47715 2 12C2 17.5228 6.47715 22 12 22C17.5228 22 22 17.5228 22 12C22 6.47715 17.5228 2 12 2ZM9.7568 13.0999C9.3958 12.6819 8.76433 12.6357 8.34636 12.9967C7.92839 13.3577 7.8822 13.9892 8.2432 14.4072C9.05258 15.3443 10.2838 16 12 16C13.7162 16 14.9474 15.3443 15.7568 14.4072C16.1178 13.9892 16.0716 13.3577 15.6536 12.9967C15.2356 12.6357 14.6042 12.6819 14.2432 13.0999C13.8244 13.5847 13.1516 14 12 14C10.8484 14 10.1756 13.5847 9.7568 13.0999ZM8 10C8 9.44772 8.44772 9 9 9H9.01C9.56228 9 10.01 9.44772 10.01 10C10.01 10.5523 9.56228 11 9.01 11H9C8.44772 11 8 10.5523 8 10ZM15 9C14.4477 9 14 9.44772 14 10C14 10.5523 14.4477 11 15 11H15.01C15.5623 11 16.01 10.5523 16.01 10C16.01 9.44772 15.5623 9 15.01 9H15Z" fill="currentColor"/>
</svg>

<svg width="24" height="24" fill="none" xmlns="http://www.w3.org/2000/svg"><path fill-rule="evenodd" clip-rule="evenodd" d="M4 12a8 8 0 1116 0 8 8 0 01-16 0zm8-10C6.477 2 2 6.477 2 12s4.477 10 10 10 10-4.477 10-10S17.523 2 12 2zM9.757 13.1a1 1 0 10-1.514 1.307C9.053 15.344 10.283 16 12 16c1.716 0 2.947-.656 3.757-1.593a1 1 0 00-1.514-1.307c-.419.485-1.091.9-2.243.9s-1.824-.415-2.243-.9zM8 10a1 1 0 011-1h.01a1 1 0 010 2H9a1 1 0 01-1-1zm7-1a1 1 0 100 2h.01a1 1 0 100-2H15z" fill="currentColor"/></svg>
